assets/icons/support.svg

<svg width="25" height="25" viewBox="0 0 25 25" fill="none" xmlns="http://www.w3.org/2000/svg">
<g id="support">
<path id="iconDefault" fill-rule="evenodd" clip-rule="evenodd" d="M12.5 3.95837C7.78255 3.95837 3.95831 7.78261 3.95831 12.5C3.95831 17.2175 7.78255 21.0417 12.5 21.0417C17.2174 21.0417 21.0416 17.2175 21.0416 12.5C21.0416 7.78261 17.2174 3.95837 12.5 3.95837ZM2.70831 12.5C2.70831 7.09225 7.09219 2.70837 12.5 2.70837C17.9078 2.70837 22.2916 7.09225 22.2916 12.5C22.2916 17.9078 17.9078 22.2917 12.5 22.2917C7.09219 22.2917 2.70831 17.9078 2.70831 12.5ZM12.5 8.95837C11.4644 8.95837 10.625 9.79784 10.625 10.8334C10.625 11.1786 10.3452 11.4584 9.99998 11.4584C9.6548 11.4584 9.37498 11.1786 9.37498 10.8334C9.37498 9.10748 10.7741 7.70837 12.5 7.70837C14.2259 7.70837 15.625 9.10748 15.625 10.8334C15.625 12.3452 14.5514 13.6063 13.125 13.8959V15C13.125 15.3452 12.8452 15.625 12.5 15.625C12.1548 15.625 11.875 15.3452 11.875 15V13.3334C11.875 12.9882 12.1548 12.7084 12.5 12.7084C13.5355 12.7084 14.375 11.8689 14.375 10.8334C14.375 9.79784 13.5355 8.95837 12.5 8.95837ZM12.5 17.7084C12.8452 17.7084 13.125 17.9882 13.125 18.3334V18.5C13.125 18.8452 12.8452 19.125 12.5 19.125C12.1548 19.125 11.875 18.8452 11.875 18.5V18.3334C11.875 17.9882 12.1548 17.7084 12.5 17.7084Z" fill="#18303F"/>
</g>
</svg>

<svg width="25" height="25" viewBox="0 0 25 25" fill="none"><g id="support"><path id="iconDefault" fill-rule="evenodd" clip-rule="evenodd" d="M12.5 3.958a8.542 8.542 0 1 0 0 17.084 8.542 8.542 0 0 0 0-17.084ZM2.708 12.5c0-5.408 4.384-9.792 9.792-9.792 5.408 0 9.792 4.384 9.792 9.792 0 5.408-4.384 9.792-9.792 9.792-5.408 0-9.792-4.384-9.792-9.792ZM12.5 8.958c-1.036 0-1.875.84-1.875 1.875a.625.625 0 1 1-1.25 0 3.125 3.125 0 1 1 3.75 3.063V15a.625.625 0 1 1-1.25 0v-1.667c0-.345.28-.625.625-.625a1.875 1.875 0 0 0 0-3.75Zm0 8.75c.345 0 .625.28.625.625v.167a.625.625 0 1 1-1.25 0v-.167c0-.345.28-.625.625-.625Z" fill="#18303F"/></g></svg>
